X: 1
T: Langdans N\"arpi\"ost\"a
P: A4B4C2A4B4C4
R: masurkka
M: 3/4
L: 1/8
K: G
"A"\
|: "G"G>c B>A B>c | d>g bz b2 | G>c B>A B>c | "D"d>f az a2 |
| "D7"A>B c>d c>A | d>f a2- a>g | f>e d>c B>A |1,3 "G"G>A B>c d2 :|2,4 "G"G2 g2 z2 :|
"B"\
|: "C"g>e c>e c>e | "G"e>d B>d B>d | "D7" d>B c>A F>A |1,3 "G"G>A B>c d2 :|2,4 "G"G2 G2 z2 :|
"C"\
|: "G"b2 b>a g>e | d>e d>B d>b | "D7"a2 c'>a f>a |1,3 "G"g2 b>g d>B :|2,4 "G"g2 g2 z2 :|
